public/waste.svg

<svg xmlns="http://www.w3.org/2000/svg" viewBox="0 0 512 512" style="height: 512px; width: 512px;"><path d="M0 0h512v512H0z" fill="#000" fill-opacity="1"></path><g class="" transform="translate(0,0)" style=""><path d="M140 29.92c-31.4 0-59.89 3.25-79.89 8.25-9.9 2.5-17.8 5.51-22.4 8.25-3.2 1.87-4.1 3.15-4.5 3.58.4.43 1.3 1.71 4.5 3.58 4.6 2.74 12.5 5.75 22.4 8.25 20 5 48.49 8.25 79.89 8.25h5.7c5.3-2 11.1-3.78 17.6-5.4 20.3-5.08 46.5-8.42 75.8-9.36 1.2-.57 2.3-1.14 3.2-1.7 3.1-1.87 4.1-3.15 4.5-3.58-.4-.43-1.4-1.71-4.5-3.58-4.6-2.74-12.5-5.75-22.5-8.25-19.9-5-48.4-8.25-79.8-8.25zm232 0c-31.4 0-59.9 3.25-79.8 8.25-10 2.5-17.9 5.51-22.5 8.25-3.1 1.87-4.1 3.15-4.5 3.58.4.43 1.4 1.71 4.5 3.58.9.56 2 1.13 3.2 1.7 29.3.94 55.5 4.28 75.8 9.36 6.5 1.62 12.3 3.4 17.6 5.4h5.7c31.4 0 59.9-3.25 79.8-8.25 10-2.5 17.9-5.51 22.5-8.25 3.1-1.87 4.1-3.15 4.5-3.58-.4-.43-1.4-1.71-4.5-3.58-4.6-2.74-12.5-5.75-22.5-8.25-19.9-5-48.4-8.25-79.8-8.25zM33.01 71.44V369.9c0 4.3 1.8 8 6.8 12.3 5 4.3 13.1 8.5 23.3 11.9 15.3 5.1 35 8.5 55.89 9.8V278.3l-16.5 28.6-7.79-4.5c-27.4-15.9-44.3-45.3-44.4-77v-9h52.59c-.6 2.6-.9 5.3-.9 8.1 0 13.1 6.8 24.8 17 31.7v-63.4c-1.9 1.3-3.6 2.7-5.2 4.2l-25.99-45.1 7.8-4.5c7.49-4.2 15.29-7.3 23.39-9.3V87.61c-24.19-1.08-45.99-4.01-63.19-8.32-8.9-2.21-16.5-4.76-22.8-7.85zm445.99 0c-6.3 3.09-14 5.63-22.8 7.84-17.2 4.31-39 7.24-63.2 8.32v50.6c8.1 2 16 5.1 23.4 9.3l7.7 4.5-4.4 7.8-21.5 37.2c-1.6-1.5-3.3-2.9-5.2-4.2v63.4c10.2-6.9 17-18.6 17-31.7 0-2.8-.3-5.5-.9-8.1h50.8v9c0 31.8-17 61.1-44.4 77l-7.8 4.5-14.7-25.5v122.5c20.9-1.3 40.7-4.7 55.9-9.8 10.2-3.4 18.3-7.6 23.3-11.9 5-4.3 6.8-8 6.8-12.3zM256 73c-34.7 0-66.2 3.57-88.3 9.1-11.1 2.77-19.8 6.09-25.1 9.19-4.3 2.58-5.3 4.42-5.5 4.71.2.29 1.2 2.12 5.5 4.7 5.3 3.1 14 6.4 25.1 9.2 22.1 5.5 53.6 9.1 88.3 9.1 34.7 0 66.2-3.6 88.3-9.1 11.1-2.8 19.8-6.1 25.1-9.2 4.3-2.58 5.3-4.41 5.5-4.7-.2-.29-1.2-2.13-5.5-4.71-5.3-3.1-14-6.42-25.1-9.19-22.1-5.53-53.6-9.1-88.3-9.1zm118.9 23c.1.1.1.1.1 0s0-.1-.1 0zm-237.8 0c-.1-.1-.1-.1-.1 0s0 .1.1 0zm-.1 22.1V448c0 5 2.2 9.3 7.9 14.2 5.6 4.8 14.7 9.5 25.9 13.3 22.6 7.5 54 11.5 85.2 11.5 31.2 0 62.6-4 85.2-11.5 11.2-3.8 20.3-8.5 25.9-13.3 5.7-4.9 7.9-9.2 7.9-14.2V118.1c-7.2 3.7-16 6.6-26.3 9.3-24.2 6-56.7 9.6-92.7 9.6s-68.5-3.6-92.7-9.6c-10.3-2.7-19.1-5.6-26.3-9.3zM256 191c16.8 0 33.5 4.4 48.5 13l7.8 4.5-4.5 7.8-24.1 41.6c-7.3-6.7-17-10.9-27.7-10.9s-20.4 4.2-27.7 10.9l-28.6-49.4 7.8-4.5c15-8.7 31.7-13 48.5-13zm0 74c12.8 0 23 10.2 23 23s-10.2 23-23 23-23-10.2-23-23 10.2-23 23-23zm-98 15h57.8c-.5 2.6-.8 5.3-.8 8 0 18.1 12 33.7 28.5 39l-29.2 50.5-7.8-4.5c-30-17.3-48.5-49.4-48.5-84zm138.2 0H352v9c0 34.6-18.5 66.7-48.5 84l-7.8 4.5-28.8-50c17.3-4.8 30.1-20.8 30.1-39.5 0-2.7-.3-5.4-.8-8z" fill="#fff" fill-opacity="1"></path></g></svg>

<?xml version="1.0" encoding="UTF-8" standalone="no"?>
<!DOCTYPE svg PUBLIC "-//W3C//DTD SVG 1.1//EN" "http://www.w3.org/Graphics/SVG/1.1/DTD/svg11.dtd">
<svg width="100%" height="100%" viewBox="0 0 512 512" version="1.1" xmlns="http://www.w3.org/2000/svg" xmlns:xlink="http://www.w3.org/1999/xlink" xml:space="preserve" xmlns:serif="http://www.serif.com/" style="fill-rule:evenodd;clip-rule:evenodd;stroke-linejoin:round;stroke-miterlimit:2;">
    <g>
        <path d="M140,29.92C108.6,29.92 80.11,33.17 60.11,38.17C50.21,40.67 42.31,43.68 37.71,46.42C34.51,48.29 33.61,49.57 33.21,50C33.61,50.43 34.51,51.71 37.71,53.58C42.31,56.32 50.21,59.33 60.11,61.83C80.11,66.83 108.6,70.08 140,70.08L145.7,70.08C151,68.08 156.8,66.3 163.3,64.68C183.6,59.6 209.8,56.26 239.1,55.32C240.3,54.75 241.4,54.18 242.3,53.62C245.4,51.75 246.4,50.47 246.8,50.04C246.4,49.61 245.4,48.33 242.3,46.46C237.7,43.72 229.8,40.71 219.8,38.21C199.9,33.21 171.4,29.96 140,29.96L140,29.92ZM372,29.92C340.6,29.92 312.1,33.17 292.2,38.17C282.2,40.67 274.3,43.68 269.7,46.42C266.6,48.29 265.6,49.57 265.2,50C265.6,50.43 266.6,51.71 269.7,53.58C270.6,54.14 271.7,54.71 272.9,55.28C302.2,56.22 328.4,59.56 348.7,64.64C355.2,66.26 361,68.04 366.3,70.04L372,70.04C403.4,70.04 431.9,66.79 451.8,61.79C461.8,59.29 469.7,56.28 474.3,53.54C477.4,51.67 478.4,50.39 478.8,49.96C478.4,49.53 477.4,48.25 474.3,46.38C469.7,43.64 461.8,40.63 451.8,38.13C431.9,33.13 403.4,29.88 372,29.88L372,29.92ZM33.01,71.44L33.01,369.9C33.01,374.2 34.81,377.9 39.81,382.2C44.81,386.5 52.91,390.7 63.11,394.1C78.41,399.2 98.11,402.6 119,403.9L119,278.3L102.5,306.9L94.71,302.4C67.31,286.5 50.41,257.1 50.31,225.4L50.31,216.4L102.9,216.4C102.3,219 102,221.7 102,224.5C102,237.6 108.8,249.3 119,256.2L119,192.8C117.1,194.1 115.4,195.5 113.8,197L87.81,151.9L95.61,147.4C103.1,143.2 110.9,140.1 119,138.1L119,87.61C94.81,86.53 73.01,83.6 55.81,79.29C46.91,77.08 39.31,74.53 33.01,71.44ZM479,71.44C472.7,74.53 465,77.07 456.2,79.28C439,83.59 417.2,86.52 393,87.6L393,138.2C401.1,140.2 409,143.3 416.4,147.5L424.1,152L419.7,159.8L398.2,197C396.6,195.5 394.9,194.1 393,192.8L393,256.2C403.2,249.3 410,237.6 410,224.5C410,221.7 409.7,219 409.1,216.4L459.9,216.4L459.9,225.4C459.9,257.2 442.9,286.5 415.5,302.4L407.7,306.9L393,281.4L393,403.9C413.9,402.6 433.7,399.2 448.9,394.1C459.1,390.7 467.2,386.5 472.2,382.2C477.2,377.9 479,374.2 479,369.9L479,71.44ZM256,73C221.3,73 189.8,76.57 167.7,82.1C156.6,84.87 147.9,88.19 142.6,91.29C138.3,93.87 137.3,95.71 137.1,96C137.3,96.29 138.3,98.12 142.6,100.7C147.9,103.8 156.6,107.1 167.7,109.9C189.8,115.4 221.3,119 256,119C290.7,119 322.2,115.4 344.3,109.9C355.4,107.1 364.1,103.8 369.4,100.7C373.7,98.12 374.7,96.29 374.9,96C374.7,95.71 373.7,93.87 369.4,91.29C364.1,88.19 355.4,84.87 344.3,82.1C322.2,76.57 290.7,73 256,73ZM374.9,96C375,96.1 375,96.1 375,96C375,95.9 375,95.9 374.9,96ZM137.1,96C137,95.9 137,95.9 137,96C137,96.1 137,96.1 137.1,96ZM137,118.1L137,448C137,453 139.2,457.3 144.9,462.2C150.5,467 159.6,471.7 170.8,475.5C193.4,483 224.8,487 256,487C287.2,487 318.6,483 341.2,475.5C352.4,471.7 361.5,467 367.1,462.2C372.8,457.3 375,453 375,448L375,118.1C367.8,121.8 359,124.7 348.7,127.4C324.5,133.4 292,137 256,137C220,137 187.5,133.4 163.3,127.4C153,124.7 144.2,121.8 137,118.1ZM256,191C272.8,191 289.5,195.4 304.5,204L312.3,208.5L307.8,216.3L283.7,257.9C276.4,251.2 266.7,247 256,247C245.3,247 235.6,251.2 228.3,257.9L199.7,208.5L207.5,204C222.5,195.3 239.2,191 256,191ZM256,265C268.8,265 279,275.2 279,288C279,300.8 268.8,311 256,311C243.2,311 233,300.8 233,288C233,275.2 243.2,265 256,265ZM158,280L215.8,280C215.3,282.6 215,285.3 215,288C215,306.1 227,321.7 243.5,327L214.3,377.5L206.5,373C176.5,355.7 158,323.6 158,289L158,280ZM296.2,280L352,280L352,289C352,323.6 333.5,355.7 303.5,373L295.7,377.5L266.9,327.5C284.2,322.7 297,306.7 297,288C297,285.3 296.7,282.6 296.2,280Z" style="fill:white;fill-rule:nonzero;"/>
    </g>
</svg>
